packages/foundations/assets/icons/functional/images/technology/power_socket_14.svg

<svg width="14" height="14" viewBox="0 0 14 14" fill="none" xmlns="http://www.w3.org/2000/svg">
<g clip-path="url(#clip0_187_612)">
<path fill-rule="evenodd" clip-rule="evenodd" d="M1.40002 11.9V2.09999C1.40002 1.70393 1.70396 1.39999 2.10002 1.39999H11.9C12.2961 1.39999 12.6 1.70393 12.6 2.09999V4.89656C12.6 5.29269 12.2961 5.59999 11.9 5.59999C11.5175 5.59999 11.2 5.29269 11.2 4.89656V2.79999H2.80002V11.2H5.60002C5.98243 11.2 6.30345 11.5175 6.30345 11.9C6.30345 12.2961 5.98243 12.6 5.60002 12.6H2.10002C1.70396 12.6 1.40002 12.2961 1.40002 11.9ZM3.50345 7.01364C3.50345 5.07415 5.06053 3.50342 6.98637 3.50342C7.98345 3.50342 8.95316 3.92685 9.62243 4.69167C9.74542 4.82831 9.80002 4.99218 9.80002 5.1424C9.80002 5.52488 9.47221 5.85269 9.10345 5.85269C8.89856 5.85269 8.70732 5.77072 8.57075 5.60685C8.17462 5.15612 7.60097 4.89656 7.01367 4.89656C5.83907 4.89656 4.89659 5.85269 4.89659 7.01364C4.89659 7.60094 5.15615 8.17459 5.60688 8.57072C5.7571 8.70729 5.85272 8.89853 5.85272 9.10342C5.85272 9.51313 5.52491 9.79999 5.15615 9.79999C4.97856 9.79999 4.81462 9.73167 4.6917 9.6224C3.92674 8.95306 3.50345 7.99707 3.50345 7.01364ZM5.60002 7.00342C5.60002 6.61913 5.90194 6.30342 6.30002 6.30342C6.68432 6.30342 7.00002 6.61913 7.00002 7.00342C7.00002 7.38772 6.68432 7.70342 6.30002 7.70342C5.90194 7.70342 5.60002 7.38772 5.60002 7.00342ZM8.84389 6.33072C9.02148 6.33072 9.19907 6.39904 9.33564 6.53561L9.80002 6.99999L10.0732 6.7405C10.2098 6.60386 10.3873 6.54926 10.5649 6.54926C10.7424 6.54926 10.92 6.60386 11.0566 6.7405L11.8762 7.54634C12.3542 8.03802 12.5864 8.67999 12.5864 9.33561C12.5864 9.92291 12.3815 10.5239 11.9717 11.002L12.3815 11.3844C12.5181 11.5209 12.6 11.7122 12.6 11.9034C12.6 12.2995 12.2859 12.6 11.8898 12.6C11.7259 12.6 11.5483 12.5317 11.4117 12.4088L10.9883 11.999C10.4966 12.3951 9.89564 12.5863 9.25367 12.5863C8.62542 12.5863 8.01075 12.3269 7.56002 11.8761L6.74053 11.0566C6.60389 10.9336 6.53564 10.7561 6.53564 10.5649C6.53564 10.3736 6.60389 10.1961 6.74053 10.0731L7.00002 9.81364L6.50834 9.32196C6.35805 9.18539 6.27615 9.0078 6.27615 8.80291C6.27615 8.4205 6.59024 8.10634 6.97272 8.10634C7.16389 8.10634 7.35513 8.17459 7.4917 8.32488L7.98345 8.81656L8.81659 7.99707L8.33856 7.51904C8.20199 7.3824 8.13367 7.20488 8.13367 7.02729C8.13367 6.84977 8.20199 6.67218 8.33856 6.53561C8.47513 6.39904 8.65272 6.33072 8.84389 6.33072ZM10.5649 8.21561L8.21564 10.5649L8.54345 10.879C8.76199 11.0976 9.04878 11.1931 9.33564 11.1931C9.66345 11.1931 9.99126 11.0702 10.2235 10.8107L10.8108 10.2234C11.0702 9.97758 11.1932 9.66342 11.1932 9.33561C11.1932 9.04875 11.0976 8.76196 10.8927 8.54342L10.5649 8.21561Z" fill="#1A1C1F"/>
</g>
<defs>
<clipPath id="clip0_187_612">
<rect width="14" height="14" fill="white"/>
</clipPath>
</defs>
</svg>

<svg xmlns="http://www.w3.org/2000/svg" width="14" height="14" fill="none"><g clip-path="url(#a)"><path fill="#1A1C1F" fill-rule="evenodd" d="M1.4 11.9V2.1c0-.396.304-.7.7-.7h9.8c.396 0 .7.304.7.7v2.797a.69.69 0 0 1-.7.703.7.7 0 0 1-.7-.703V2.8H2.8v8.4h2.8c.382 0 .703.318.703.7a.7.7 0 0 1-.703.7H2.1a.69.69 0 0 1-.7-.7m2.103-4.886c0-1.94 1.558-3.51 3.483-3.51.997 0 1.967.423 2.636 1.188.123.136.178.3.178.45a.72.72 0 0 1-.697.71.68.68 0 0 1-.532-.245c-.396-.45-.97-.71-1.557-.71a2.12 2.12 0 0 0-2.117 2.117c0 .587.26 1.16.71 1.557.15.136.246.328.246.532a.69.69 0 0 1-.697.697.7.7 0 0 1-.464-.178 3.47 3.47 0 0 1-1.189-2.608m2.097-.01c0-.385.302-.7.7-.7.384 0 .7.315.7.7s-.316.7-.7.7a.694.694 0 0 1-.7-.7m3.244-.673c.177 0 .355.068.492.205L9.8 7l.273-.26a.68.68 0 0 1 .492-.19.68.68 0 0 1 .492.19l.82.806c.477.492.71 1.134.71 1.79 0 .587-.205 1.188-.615 1.666l.41.382a.75.75 0 0 1 .218.52.694.694 0 0 1-.71.696.73.73 0 0 1-.478-.191l-.424-.41c-.491.396-1.092.587-1.734.587-.629 0-1.243-.26-1.694-.71l-.82-.82a.65.65 0 0 1-.204-.491.65.65 0 0 1 .205-.492L7 9.813l-.492-.491a.68.68 0 0 1-.232-.52.7.7 0 0 1 .697-.696c.19 0 .382.069.519.219l.491.492.834-.82-.478-.478a.693.693 0 0 1 0-.983.7.7 0 0 1 .505-.205m1.72 1.885-2.348 2.349.327.314c.219.219.506.314.793.314.327 0 .655-.123.887-.382l.588-.588c.26-.245.382-.56.382-.887a1.15 1.15 0 0 0-.3-.793z" clip-rule="evenodd"/></g><defs><clipPath id="a"><path fill="#fff" d="M0 0h14v14H0z"/></clipPath></defs></svg>
